resources/svg/tree-option.svg

<svg xmlns="http://www.w3.org/2000/svg" viewBox="0 0 24 24" fill="currentColor"><path fill="none" stroke="currentColor" stroke-width="2" d="M7,13 L11.375,6 L9,6 L12,2 L15,6 L12.625,6 L17,13 L15,13 L19,19.6666667 L5,19.6666667 L9,13 L7,13 Z M12,24 L12,20"/></svg>

<svg viewBox="0 0 24 24"><path fill="none" stroke="currentColor" stroke-width="2" d="M7 13l4.375-7H9l3-4l3 4h-2.375L17 13h-2l4 6.667H5L9 13H7zm5 11v-4"/></svg>
